build/documents/FileRubleOutline.svg

<svg xmlns="http://www.w3.org/2000/svg" fill="none" viewBox="0 0 24 24" focusable="false"><path d="M0 0H24V24H0z"/><path fill="#74767B" fill-rule="evenodd" d="M20.6499 6.3501C20.6499 4.69336 19.3066 3.3501 17.6499 3.3501L9.6499 3.3501C7.99316 3.3501 6.6499 4.69336 6.6499 6.3501L6.6499 16.3501C6.6499 18.0068 7.99316 19.3501 9.6499 19.3501L17.6499 19.3501C19.3066 19.3501 20.6499 18.0068 20.6499 16.3501L20.6499 6.3501ZM17.6499 4.65015L9.6499 4.65015C8.71094 4.65015 7.9502 5.41113 7.9502 6.3501L7.9502 16.3501C7.9502 17.2891 8.71094 18.05 9.6499 18.05L17.6499 18.05C18.5889 18.05 19.3501 17.2891 19.3501 16.3501L19.3501 6.3501C19.3501 5.41113 18.5889 4.65015 17.6499 4.65015ZM11.3013 6.05005C10.9424 6.05005 10.6514 6.34106 10.6514 6.69995L10.6514 11.3943L9.95557 11.3943C9.59668 11.3943 9.30566 11.6853 9.30566 12.0444C9.30566 12.4033 9.59668 12.6943 9.95557 12.6943L10.6514 12.6943L10.6514 13.7427L9.94971 13.7427C9.59082 13.7427 9.2998 14.0337 9.2998 14.3928C9.2998 14.7517 9.59082 15.0427 9.94971 15.0427L10.6514 15.0427L10.6514 15.8906C10.6514 16.2495 10.9424 16.5405 11.3013 16.5405C11.6602 16.5405 11.9512 16.2495 11.9512 15.8906L11.9512 15.0427L14.9712 15.0427C15.3301 15.0427 15.6211 14.7517 15.6211 14.3928C15.6211 14.0337 15.3301 13.7427 14.9712 13.7427L11.9512 13.7427L11.9512 12.6943L14.6289 12.6943C16.4639 12.6943 17.9512 11.207 17.9512 9.37231C17.9512 7.53735 16.4639 6.05005 14.6289 6.05005L11.3013 6.05005ZM14.6289 11.3943L11.9512 11.3943L11.9512 7.3501L14.6289 7.3501C15.7461 7.3501 16.6514 8.25537 16.6514 9.37231C16.6514 10.489 15.7461 11.3943 14.6289 11.3943ZM4 9.3501C4 8.99121 4.29102 8.7002 4.6499 8.7002C5.00879 8.7002 5.2998 8.99121 5.2998 9.3501L5.2998 18.7502C5.2998 19.8271 6.17285 20.7002 7.25 20.7002L15.6499 20.7002C16.0088 20.7002 16.2998 20.9912 16.2998 21.3501C16.2998 21.7092 16.0088 22.0002 15.6499 22.0002L7.25 22.0002C5.45508 22.0002 4 20.5452 4 18.7502L4 9.3501Z"/></svg>

<svg xmlns="http://www.w3.org/2000/svg" fill="none" viewBox="0 0 24 24" focusable="false"><path fill="#74767B" fill-rule="evenodd" d="M17.64 3.35c1.66 0 3 1.34 3 3v10c0 1.65-1.34 3-3 3h-8c-1.65 0-3-1.35-3-3v-10c0-1.66 1.35-3 3-3zm-8 1.3h8c.94 0 1.71.76 1.71 1.7v10c0 .93-.77 1.69-1.71 1.69h-8c-.93 0-1.69-.76-1.69-1.69v-10c0-.94.76-1.7 1.69-1.7m1.66 1.4c-.36 0-.65.29-.65.64v4.7h-.7c-.36 0-.65.29-.65.65s.29.65.65.65h.7v1.05h-.71c-.35 0-.65.29-.65.65s.3.65.65.65h.71v.85c0 .35.29.65.65.65s.65-.3.65-.65v-.85h3.02c.36 0 .65-.29.65-.65s-.29-.65-.65-.65h-3.02v-1.05h2.67c1.84 0 3.33-1.49 3.33-3.32a3.32 3.32 0 0 0-3.33-3.32zm3.32 5.34h-2.67V7.35h2.67c1.12 0 2.03.9 2.03 2.02 0 1.11-.91 2.02-2.03 2.02M4.64 8.7c-.35 0-.64.29-.64.65v9.4A3.25 3.25 0 0 0 7.25 22h8.39c.36 0 .65-.3.65-.65 0-.36-.29-.65-.65-.65H7.25c-1.08 0-1.96-.88-1.96-1.95v-9.4c0-.36-.29-.65-.65-.65"/></svg>
